src/cart/components/img/ewallet.svg

<?xml version="1.0" encoding="UTF-8"?>
<svg width="34px" height="23px" viewBox="0 0 34 23" version="1.1" xmlns="http://www.w3.org/2000/svg" xmlns:xlink="http://www.w3.org/1999/xlink">
    <!-- Generator: Sketch 48.2 (47327) - http://www.bohemiancoding.com/sketch -->
    <title>Page 1</title>
    <desc>Created with Sketch.</desc>
    <defs></defs>
    <g id="5-Select-coupon-Copy-5" stroke="none" stroke-width="1" fill="none" fill-rule="evenodd" transform="translate(-37.000000, -862.000000)">
        <g id="Payment-menthod" transform="translate(16.000000, 150.000000)">
            <g id="Page-1" transform="translate(21.000000, 712.000000)">
                <path d="M10.0895,10.8205 L10.0895,10.7945 C10.0895,10.2825 9.9615,9.8725 9.7055,9.5645 C9.4495,9.2565 9.1015,9.1025 8.6575,9.1025 C8.2155,9.1025 7.8685,9.2565 7.6165,9.5645 C7.3655,9.8725 7.2395,10.2825 7.2395,10.7945 L7.2395,10.8205 L10.0895,10.8205 Z M6.3605,14.0995 C5.7935,13.5445 5.4915,12.7555 5.4565,11.7315 L5.4435,11.4055 C5.4435,10.3215 5.7285,9.4665 6.2965,8.8425 C6.8645,8.2175 7.6515,7.9055 8.6575,7.9055 C9.6915,7.9055 10.4865,8.2175 11.0465,8.8425 C11.6065,9.4665 11.8855,10.2995 11.8855,11.3415 L11.8855,11.6135 C11.8855,11.7005 11.8555,11.7745 11.7945,11.8355 C11.7345,11.8965 11.6555,11.9265 11.5605,11.9265 L7.2395,11.9265 L7.2395,12.0305 C7.2575,12.5165 7.3895,12.9175 7.6365,13.2345 C7.8845,13.5505 8.2245,13.7095 8.6575,13.7095 C9.1525,13.7095 9.5565,13.5095 9.8685,13.1105 C9.9465,13.0155 10.0075,12.9565 10.0505,12.9355 C10.0945,12.9135 10.1675,12.9025 10.2725,12.9025 L11.4165,12.9025 C11.4945,12.9025 11.5625,12.9245 11.6185,12.9675 C11.6755,13.0105 11.7035,13.0715 11.7035,13.1495 C11.7035,13.3585 11.5795,13.6035 11.3325,13.8845 C11.0855,14.1675 10.7325,14.4115 10.2725,14.6205 C9.8125,14.8285 9.2775,14.9325 8.6715,14.9325 C7.6995,14.9325 6.9295,14.6545 6.3605,14.0995 Z" id="Fill-1" fill="#231F20"></path>
                <path d="M32.4967,14.8025 L25.9897,14.8025 C24.7997,14.8025 23.8247,13.8285 23.8247,12.6375 L23.8247,9.7745 C23.8247,8.5845 24.7997,7.6105 25.9897,7.6105 L32.4967,7.6105" id="Stroke-3" stroke="#020303" stroke-width="1.4"></path>
                <path d="M30.3327,21.7126 L2.8647,21.7126 C1.6747,21.7126 0.6997,20.7386 0.6997,19.5476 L0.6997,2.8646 C0.6997,1.6736 1.6747,0.6996 2.8647,0.6996 L30.3327,0.6996 C31.5227,0.6996 32.4967,1.6736 32.4967,2.8646 L32.4967,19.5476 C32.4967,20.7386 31.5227,21.7126 30.3327,21.7126 Z" id="Stroke-5" stroke="#020303" stroke-width="1.4"></path>
                <path d="M28.1608,11.2063 C28.1608,10.6093 27.6778,10.1243 27.0798,10.1243 C26.4818,10.1243 25.9988,10.6093 25.9988,11.2063 C25.9988,11.8033 26.4818,12.2883 27.0798,12.2883 C27.6778,12.2883 28.1608,11.8033 28.1608,11.2063 Z" id="Stroke-7" stroke="#020303" stroke-width="1.4"></path>
                <path d="M14.2672,11.824 L22.9322,11.824 C23.4252,11.824 23.8252,11.494 23.8252,11.088 C23.8252,10.682 23.4262,10.352 22.9322,10.352 L14.2672,10.352 C13.7742,10.352 13.3742,10.682 13.3742,11.088 C13.3742,11.494 13.7742,11.824 14.2672,11.824" id="Fill-9" fill="#020303"></path>
                <path d="M0.987,11.824 L3.121,11.824 C3.523,11.824 3.848,11.494 3.848,11.088 C3.848,10.682 3.523,10.352 3.121,10.352 L0.987,10.352 C0.586,10.352 0.26,10.682 0.26,11.088 C0.26,11.494 0.586,11.824 0.987,11.824" id="Fill-11" fill="#020303"></path>
            </g>
        </g>
    </g>
</svg>

<svg height="23" viewBox="0 0 34 23" width="34" xmlns="http://www.w3.org/2000/svg"><g fill="none" fill-rule="evenodd"><path d="m10.0895 10.8205v-.026c0-.512-.128-.922-.384-1.23s-.604-.462-1.048-.462c-.442 0-.789.154-1.041.462-.251.308-.377.718-.377 1.23v.026zm-3.729 3.279c-.567-.555-.869-1.344-.904-2.368l-.013-.326c0-1.084.285-1.939.853-2.563.568-.625 1.355-.937 2.361-.937 1.034 0 1.829.312 2.389.937.56.624.839 1.457.839 2.499v.272c0 .087-.03.161-.091.222-.06.061-.139.091-.234.091h-4.321v.104c.018.486.15.887.397 1.204.248.316.588.475 1.021.475.495 0 .899-.2 1.211-.599.078-.095.139-.154.182-.175.044-.022.117-.033.222-.033h1.144c.078 0 .146.022.202.065.057.043.085.104.085.182 0 .209-.124.454-.371.735-.247.283-.6.527-1.06.736-.46.208-.995.312-1.601.312-.972 0-1.742-.278-2.311-.833z" fill="#231f20"/><g stroke="#020303" stroke-width="1.4"><path d="m32.4967 14.8025h-6.507c-1.19 0-2.165-.974-2.165-2.165v-2.863c0-1.19.975-2.164 2.165-2.164h6.507"/><path d="m30.3327 21.7126h-27.468c-1.19 0-2.165-.974-2.165-2.165v-16.683c0-1.191.975-2.165 2.165-2.165h27.468c1.19 0 2.164.974 2.164 2.165v16.683c0 1.191-.974 2.165-2.164 2.165z"/><path d="m28.1608 11.2063c0-.597-.483-1.082-1.081-1.082s-1.081.485-1.081 1.082.483 1.082 1.081 1.082 1.081-.485 1.081-1.082z"/></g><path d="m14.2672 11.824h8.665c.493 0 .893-.33.893-.736s-.399-.736-.893-.736h-8.665c-.493 0-.893.33-.893.736s.4.736.893.736" fill="#020303"/><path d="m.987 11.824h2.134c.402 0 .727-.33.727-.736s-.325-.736-.727-.736h-2.134c-.401 0-.727.33-.727.736s.326.736.727.736" fill="#020303"/></g></svg>
